X: 9
T: Rolling In The Barrel
R: reel
M: 4/4
L: 1/8
K: Edor
|: AB B2 fB B2 | f2 ec ABcA | AB B2 fB B2 | f2 ea fBBA |
AB B2 fB B2 | f2 ec AB (2cBA | AB B2 fB B2 | f2 ea fB B2 :||
|:B2 (3dcB fBdB | A^GAc e2 cA | B2 (3dcB fBdB | afeg fBBA |
B2 (3dcB fBdB | A^GAc e2 cd | ecdB cAB^G | AFEc fBBA :||


Tune 500	Setting 24976

